X: 7
T: Strop The Razor
R: jig
M: 6/8
L: 1/8
K: Gmaj
DGG BGG|AFD =F2D|DGG BGG|BdB cAF|DGG BGG|
AFD =F2G|=FED F2G|Add cAG:|:DGG {F}G2A|D=FF {E}F2G|DGG{F}G2c|
Bdd cAF|DGG {F}G2A|D=FF {E}F2G|=FED F2G|Add cAG:|


Tune 693	Setting 693

